X: 305625
T: COTILLION No. 1. FANNY JONES' SETT tune 2
%R: march, reel
B: Elias Howe "The Musician's Companion" Part 3 1844 p.78 #2
S: http://imslp.org/wiki/The_Musician's_Companion_(Howe,_Elias)
Z: 2015 John Chambers <jc:trillian.mit.edu>
M: 2/4
L: 1/16
K: Eb
% - - - - - - - - - - - - - - - - - - - - - - - - - - - - -
E2 |\
G2G2 B2B2 | F2F2 A2A2 | G2e2 B2G2 | B2A2 F2B2 |\
G2G2 B2B2 | F2F2 A2A2 | Gedc BAGF | E6 H|]
B2 |\
e2e2 B2G2 | f2f2 d2B2 | g2g2 f2e2 | e2d2 d4 |\
c3d fedc | Bede fdBA | FBGE | FAFD | E2G2"^D.C."E2 :|
% - - - - - - - - - - Dance description - - - - - - - - - -
%%begintext align
%% First 2 forward and back,
%% cross over,
%% chassa de chassa,
%% cross back,
%% balance and turn partners.
%% The other couples the same.
%%endtext
% - - - - - - - - - - - - - - - - - - - - - - - - - - - - -
%%sep 1 1 300


